X:71
T:Polska
C:
R:Polska
Z:Anton Teljebäck 2007-11-28
O:Bäverhult, Norsjö, Västerbotten
S:efter Joakim Lundmark
B:Upptecknat i [[!Slatta fra Wästerbottn]] nr 2
M:3/4
L:1/8
K:F
{(AB}c>)f A3 c | B>d G4 | C>(D E)>(F G>)A | G>F c3 (A/B/ | 
c>)f A3 c | | B>d G4 | C>(D E)>F G>A | G2 F4 :|
K:Bb
|: (Bc/B/ A2) {E}G2 | F2 d4 |(Bc/B/ A2) {E}G2 | F2 d4 |
|.e.g .c.e .A.c | .d.f .B.d .F.B | .c.e .A.c .F.A | c2 B4 :|
(:musicend:)

(:title Polska efter Joakim Lundmark (nr 2):)
(:music:)
